X:1
T:Morning Light - Bass
C:Groove Link Example
M:4/4
L:1/4
Q:1/4=72
K:C bass
%%MIDI program 32
%
% Walking bass line - 8 bars
% Follows Cmaj7 - Am7 - Dm7 - G7 progression
%
|: C, E, G, E, | A,, C, E, C, |
| D, F, A, F, | G,, B,, D, B,, |
| C, E, G, B, | A,, C, E, G, |
| D, F, A, B, | C, z z2 :|
%
% B section - melodic movement
%
| C, D, E, F, | G, A, B, G, |
| A,, B,, C, D, | E, F, G, E, |
| F, E, D, C, | B,, A,, G,, F,, |
| E,, D,, C,, G,, | C, z z2 |
